remix/Weather/temp-cold-line.svg

<svg viewBox="0 0 24 24" fill="currentColor" xmlns="http://www.w3.org/2000/svg"><path d="M8 5C8 2.79086 9.79086 1 12 1C14.2091 1 16 2.79086 16 5V10.2547C17.8135 11.5196 19 13.6213 19 16C19 19.866 15.866 23 12 23C8.13401 23 5 19.866 5 16C5 13.6213 6.18652 11.5196 8 10.2547V5ZM9.1442 11.8951C7.80943 12.8261 7 14.3432 7 16C7 18.7614 9.23858 21 12 21C14.7614 21 17 18.7614 17 16C17 14.3432 16.1906 12.8261 14.8558 11.8951L14 11.2981V5C14 3.89543 13.1046 3 12 3C10.8954 3 10 3.89543 10 5V11.2981L9.1442 11.8951ZM8 16H16C16 18.2091 14.2091 20 12 20C9.79086 20 8 18.2091 8 16Z"/></svg>

<svg viewBox="0 0 24 24" xmlns="http://www.w3.org/2000/svg"><path fill="none" d="M0 0h24v24H0Z"/><path d="M8 5v0c0-2.21 1.79-4 4-4 2.2 0 4 1.79 4 4v5.255 0c3.17 2.2 3.95 6.57 1.74 9.74s-6.58 3.95-9.75 1.74c-3.18-2.21-3.96-6.58-1.75-9.75 .47-.69 1.06-1.28 1.74-1.75V4.97Zm1.14 6.895v0c-2.27 1.57-2.83 4.69-1.25 6.96 1.57 2.26 4.69 2.82 6.96 1.24 2.26-1.58 2.82-4.7 1.24-6.97 -.34-.49-.77-.91-1.25-1.25l-.86-.6v-6.3 0c0-1.11-.9-2-2-2 -1.11 0-2 .89-2 2v6.298l-.86.59ZM7.99 16h8v0c0 2.2-1.8 4-4 4 -2.21 0-4-1.8-4-4Z"/></svg>
